X:9597
T:Lillbackvalsen
S:Alfta
A:Alfta, Hälsingland
O:Sweden
M:3/4
L:1/8
Q:1/4=180
K:G
D2|(DG) (FG) AF|G4 B2|(Bd) (cd) ec|d4 d2|\
(D2 F2) A2|(cB) cd e2|(ed) (Bc) AF|G4::g2|\
(gf) (ed) ef|(gf) (ga) b2|(ba) (fd) ef|g4 g2|\
(gf) (ed) ef|(gf) (ga) b2|(ba) (fd) ef|g3 (a g)(=f|\
e2) c2 ce|d2 B2 g=f|e2 c2 ce|d2 B2 Bd|\
(dc) (Bc) AF|G4:|\
T:Andrastämma
G,2|(G,B,) (A,B,) CA,|[B,4D4] G2|(GB) (AB) cA|B4 B2|\
D2 C2 D2|(AG) (AB) c2|(cB) (GA) FD|[B,4D4]::\
B2|(ed) (cB) cd|(ed) (ef) g2|(dc) (AF) GA|B4 e2|\
(ed) (cB) cd|(ed) (ef) g2|(dc) (AF) GA|B3 (A B)(A|\
G2) E2 EG|B2 G2 BA|G2 E2 EG|B2 G2 DG|\
(BA) (GF) DC|[B,4D4]:|
%  ABC2Win Version 2.1 1997-09-25


